assets/logos/github.svg

<svg width="80" height="80" viewBox="0 0 80 80" fill="none" xmlns="http://www.w3.org/2000/svg">
<path d="M39.9999 8C22.3268 8 7.99988 22.3269 7.99988 40C7.99988 57.6731 22.3268 72 39.9999 72C57.673 72 71.9999 57.6731 71.9999 40C71.9999 22.3269 57.673 8 39.9999 8ZM59.0033 59.0034C56.5333 61.4733 53.6588 63.4118 50.459 64.7651C49.6463 65.1089 48.8209 65.4106 47.9839 65.6709V60.875C47.9839 58.3541 47.1194 56.5 45.3901 55.3125C46.4736 55.2084 47.4683 55.0625 48.3745 54.875C49.2808 54.6875 50.2393 54.4166 51.2495 54.0625C52.26 53.7084 53.1663 53.2865 53.9683 52.7969C54.7705 52.3073 55.5413 51.6719 56.2808 50.8906C57.0205 50.1094 57.6401 49.224 58.1401 48.2344C58.6401 47.2448 59.0361 46.0573 59.3276 44.6719C59.6194 43.2865 59.7651 41.7604 59.7651 40.0938C59.7651 36.8646 58.7131 34.1146 56.6089 31.8438C57.5674 29.3438 57.4631 26.625 56.2964 23.6875L55.5151 23.5938C54.9736 23.5312 53.9995 23.7604 52.5933 24.2812C51.187 24.8021 49.6089 25.6562 47.8589 26.8438C45.3799 26.1562 42.8069 25.8125 40.1403 25.8125C37.4528 25.8125 34.8903 26.1562 32.4528 26.8438C31.3486 26.0938 30.3018 25.474 29.3121 24.9844C28.3225 24.4947 27.5309 24.1615 26.9371 23.9844C26.3434 23.8073 25.7913 23.6979 25.2809 23.6562C24.7705 23.6146 24.4424 23.6041 24.2965 23.625C24.1506 23.6459 24.0465 23.6666 23.984 23.6875C22.8174 26.6459 22.7131 29.3646 23.6715 31.8438C21.5674 34.1146 20.5153 36.8646 20.5153 40.0938C20.5153 41.7604 20.6611 43.2865 20.9528 44.6719C21.2444 46.0573 21.6403 47.2448 22.1403 48.2344C22.6403 49.224 23.26 50.1094 23.9996 50.8906C24.7393 51.6719 25.51 52.3073 26.3121 52.7969C27.1143 53.2865 28.0205 53.7084 29.0309 54.0625C30.0413 54.4166 30.9996 54.6875 31.9059 54.875C32.8121 55.0625 33.8069 55.2084 34.8903 55.3125C33.1819 56.4791 32.3278 58.3334 32.3278 60.875V65.7644C31.3841 65.4835 30.454 65.1516 29.5403 64.7651C26.3406 63.4118 23.466 61.4733 20.9961 59.0034C18.5264 56.5336 16.5878 53.6589 15.2345 50.4591C13.8348 47.1494 13.1249 43.6304 13.1249 40C13.1249 36.3696 13.8348 32.8506 15.2348 29.5406C16.5881 26.341 18.5266 23.4664 20.9964 20.9965C23.4661 18.5266 26.3409 16.5881 29.5405 15.2349C32.8505 13.8349 36.3695 13.125 39.9999 13.125C43.6303 13.125 47.1493 13.8349 50.4594 15.2349C53.6591 16.5883 56.5336 18.5268 59.0036 20.9965C61.4734 23.4662 63.4119 26.341 64.7651 29.5406C66.1649 32.8506 66.8749 36.3696 66.8749 40C66.8749 43.6304 66.1649 47.1494 64.765 50.4594C63.4118 53.6589 61.473 56.5338 59.0033 59.0034Z" fill="black"/>
</svg>

<svg xmlns="http://www.w3.org/2000/svg" width="80" height="80" fill="none" viewBox="0 0 80 80"><path fill="#000" d="M40 8C22.327 8 8 22.327 8 40s14.327 32 32 32 32-14.327 32-32S57.673 8 40 8m19.003 51.003a26.8 26.8 0 0 1-11.02 6.668v-4.796q0-3.78-2.593-5.562a28 28 0 0 0 2.984-.438 22.5 22.5 0 0 0 2.875-.812 14.2 14.2 0 0 0 2.72-1.266q1.202-.735 2.312-1.906 1.11-1.173 1.86-2.657.75-1.485 1.187-3.562.437-2.079.437-4.578 0-4.845-3.156-8.25 1.437-3.75-.313-8.157l-.78-.093q-.813-.094-2.923.687-2.109.781-4.734 2.563a28.8 28.8 0 0 0-7.719-1.032q-4.031 0-7.687 1.032a27 27 0 0 0-3.14-1.86q-1.485-.735-2.376-1a8 8 0 0 0-1.656-.328q-.766-.062-.984-.031-.219.03-.313.063-1.75 4.437-.312 8.156-3.157 3.405-3.157 8.25 0 2.499.438 4.578.437 2.078 1.187 3.562.75 1.485 1.86 2.657 1.11 1.17 2.312 1.906 1.203.734 2.719 1.266 1.516.53 2.875.812 1.358.281 2.984.438-2.562 1.749-2.562 5.562v4.89a26.8 26.8 0 0 1-11.332-6.761 26.8 26.8 0 0 1-5.761-8.545A26.7 26.7 0 0 1 13.125 40c0-3.63.71-7.15 2.11-10.46a26.8 26.8 0 0 1 5.761-8.543A26.8 26.8 0 0 1 40 13.125c3.63 0 7.15.71 10.46 2.11a26.8 26.8 0 0 1 8.544 5.762A26.8 26.8 0 0 1 66.874 40c0 3.63-.71 7.15-2.109 10.46a26.8 26.8 0 0 1-5.762 8.543"/></svg>
